X:164
T:B164-  Gramercy Penny
Q:1/4=120
L:1/4
M:C|
K:G
G|(B/2c/2)dd(c/2B/2)|(A/2B/2) (A/2G/2)G3/2F/2|EC(A/2B/2)c|\
FD2E/2D/2|(E/2F/2)GG(F/2E/2)|(F/2G/2)AAd|BGD3/2d/2|BG2||\
(B/2c/2)|d(e/2d/2) (d/2e/2) (d/2^c/2)|d2B(e/2d/2)|\
(c/2B/2) (A/2G/2)E3/2A/2|FA2(B/2c/2)|\
d3/2d/2BG|EAF3/2d/2|(e/2d/2) (c/2B/2)AD|EG2|]
